!!!!SEGMENT: Wil2057-O_magnum_misterium.krn
!!!id: Wil2057
!!!AGN: Motet
!!!SCT: Zenck (1950)
!!!voices: 4
!!!COM: Adrian Willaert
!!!OTL: O magnum misterium
**kern	**kern	**kern	**kern
*part4	*part3	*part2	*part1
*staff4	*staff3	*staff2	*staff1
*I"Bassus	*I"Tenor	*I"Altus	*I"Superius
*I'B	*I'T	*I'A	*I'S
*clefF4	*clefGv2	*clefG2	*clefG2
*k[b-]	*k[b-]	*k[b-]	*k[b-]
*F:	*F:	*F:	*F:
*M2/1	*M2/1	*M2/1	*M2/1
*met(C|)	*met(C|)	*met(C|)	*met(C|)
!!section: Prima pars: O magnum misterium
!!!OMD: Prima pars: O magnum misterium
=1	=1	=1	=1
0F	0r	1r	0r
.	.	[1c	.
=2	=2	=2	=2
1A	0r	1c]	0r
[1c	.	2.e	.
.	.	4f	.
=3	=3	=3	=3
2c]	0r	2g	0r
2F	.	1a	.
1A	.	.	.
.	.	4g	.
.	.	4f	.
=4	=4	=4	=4
1G	1d	2b-y	0r
.	.	2b-y	.
[1F	[1f	[1a	.
=5	=5	=5	=5
1F]	2f]	1a]	0r
.	2c	.	.
2r	1e-X	1g	.
2C	.	.	.
=6	=6	=6	=6
2D	1d	1f	0r
2F	.	.	.
2F	[1c	1r	.
2E	.	.	.
=7	=7	=7	=7
2F	1c]	0r	0r
2A	.	.	.
2G	2r	.	.
[2A	2c	.	.
=8	=8	=8	=8
2A]	2e	0r	0r
4G	2f	.	.
4F	.	.	.
1G	2f	.	.
.	2e	.	.
=9	=9	=9	=9
1F	2f	[0c	1r
.	2a	.	.
2r	2g	.	[1cc
2F	[2a	.	.
=10	=10	=10	=10
1F	2a]	1c]	0cc]
.	4g	.	.
.	4f	.	.
1c	2g	1e	.
.	2a	.	.
=11	=11	=11	=11
1B-y	0d	1.f	1dd
2B-y	.	.	[1ff
2B-y	.	2f	.
=12	=12	=12	=12
1F	1c	1a	2ff]
.	.	.	2cc
1c	2r	1g	1ee
.	2c	.	.
=13	=13	=13	=13
1r	2d	2.f	1dd
.	2B-y	.	.
.	.	4g	.
2r	1f	4a	[1cc
.	.	4b-y	.
2F	.	[2a	.
=14	=14	=14	=14
2A	1e	2a]	1cc]
2c	.	2g	.
2c	2r	2a	1r
2B-y	2d	2g	.
=15	=15	=15	=15
2.c	2e	4g	2r
.	.	4f	.
.	2g	4e	2g
4B-y	.	4d	.
1A	2g	2.c	2a
.	2f	.	2cc
.	.	4d	.
=16	=16	=16	=16
1G	2.g	2e	2cc
.	.	2d	2b-y
.	4f	.	.
2A	2e	1a	1cc
2F	[2f	.	.
=17	=17	=17	=17
1B-y	2f]	2f	1dd
.	2d	2g	.
2A	2e	1a	2cc
2F	[2f	.	[2dd
=18	=18	=18	=18
1G	4f]	1b-y	2dd]
.	4e	.	.
.	4e	.	4cc
.	4d	.	4b-y
2F	1f	[1a	2cc
2D	.	.	[2dd
=19	=19	=19	=19
1A	2e	2a]	4dd]
.	.	.	4cc
.	2c	2f	1cc
1G	1d	1g	.
.	.	.	2bni
=20	=20	=20	=20
0C	[0c	2r	2.cc
.	.	2e	.
.	.	.	4b-y
.	.	2e	2a
.	.	2e	2g
=21	=21	=21	=21
1F	1c]	2.f	2.a
.	.	4g	4b-y
2F	2r	2.a	[1cc
2F	2c	.	.
.	.	8gL	.
.	.	8fJ	.
=22	=22	=22	=22
2.A	2c	2e	0cc_
.	2c	1a	.
4B-y	.	.	.
1c	2e	.	.
.	2e	2g	.
=23	=23	=23	=23
2.F	2.f	2.a	1cc]
4G	8eL	4g	.
.	8dJ	.	.
2A	2c	4f	2r
.	.	4e	.
2B-y	[2f	[2d	2f
=24	=24	=24	=24
1G	2f]	2d]	2g
.	2e	4c	2g
.	.	4B-y	.
1F	1f	1c	2.a
.	.	.	4b-y
=25	=25	=25	=25
1F	1f	1A	2cc
.	.	.	1dd
2G	1e	1r	.
2A	.	.	2cc
=26	=26	=26	=26
2B-y	2d	0r	1dd
2G	2.g	.	.
2.c	.	.	2r
.	4f	.	.
.	4e	.	2cc
4B-y	4d	.	.
=27	=27	=27	=27
4A	2f	0r	2cc
4G	.	.	.
1c	2e	.	2cc
.	2d	.	2dd
2Bni	[2g	.	2dd
=28	=28	=28	=28
1c	2g]	2r	1ee
.	2e	2g	.
1c	1e	2g	2r
.	.	2g	2cc
=29	=29	=29	=29
1F	2r	2.a	2.cc
.	2c	.	.
.	.	4b-y	4dd
1r	2c	1cc	2ee
.	2c	.	2ee
=30	=30	=30	=30
0r	2.d	2.f	2.ff
.	4e	4g	8eeL
.	.	.	8ddJ
.	2f	2a	2cc
.	2B-y	2b-y	[2ff
=31	=31	=31	=31
0r	1c	1g	2ff]
.	.	.	2ee
.	1f	1f	2ff
.	.	.	[2cc
=32	=32	=32	=32
0r	0r	1f	2cc]
.	.	.	2dd
.	.	2g	2ee
.	.	2a	2ff
=33	=33	=33	=33
1r	0r	2b-y	2dd
.	.	2g	2.gg
1c	.	2.cc	.
.	.	.	4ff
.	.	.	4ee
.	.	4b-y	4dd
=34	=34	=34	=34
1c	1r	4a	2cc
.	.	4g	.
.	.	1cc	2ee
1G	1g	.	1dd
.	.	2bni	.
=35	=35	=35	=35
2.c	1g	0cc	0ee
4B-y	.	.	.
4A	1c	.	.
4G	.	.	.
2A	.	.	.
=36	=36	=36	=36
2F	2.f	0r	0r
2.B-y	.	.	.
.	4e	.	.
.	4d	.	.
4A	4c	.	.
4G	2d	.	.
4F	.	.	.
=37	=37	=37	=37
2G	2B-y	0r	0r
2.A	2.c	.	.
4G	4B-y	.	.
[2G	4A	.	.
.	4G	.	.
=38	=38	=38	=38
2G]	2A	0r	1r
2F#i	2A	.	.
[1G	1G	.	1dd
=39	=39	=39	=39
1G]	2.B-y	1g	1dd
.	4c	.	.
1G	1d	1g	1b-y
=40	=40	=40	=40
1F	2.A	1c	2.cc
.	4B-y	.	4b-y
1F	1c	2.f	4a
.	.	.	4g
.	.	.	2a
.	.	4e	.
=41	=41	=41	=41
2.B-y	0r	4d	2f
.	.	4c	.
.	.	2d	1b-y
4A	.	.	.
2G	.	2B-y	.
2C	.	[2c	4a
.	.	.	4g
=42	=42	=42	=42
2F	1c	4c]	2a
.	.	4B-y	.
2E	.	2G	1g
1D	[1d	2A	.
.	.	2A	2f#i
=43	=43	=43	=43
1G	2d]	2G	[0g
.	2B-y	2.d	.
1r	1e-X	.	.
.	.	4c	.
.	.	[2c	.
=44	=44	=44	=44
1G	1d	2c]	1g]
.	.	2Bni	.
[1A	2r	[1c	1r
.	2f	.	.
=45	=45	=45	=45
2A]	2e	1c]	1a
2F	2.a	.	.
1B-y	.	1r	2b-y
.	4g	.	.
.	[2g	.	2g
=46	=46	=46	=46
1A	2g]	1c	1cc
.	2f#i	.	.
1G	[1g	2d	1b-y
.	.	2B-y	.
=47	=47	=47	=47
1C	0g]	1e-X	1r
1G	.	1d	1b-y
=48	=48	=48	=48
1.A	1c	2r	1.cc
.	.	2f	.
.	2r	2e	.
2F	[2c	[2a	2a
=49	=49	=49	=49
1G	2c]	4a]	1dd
.	.	4g	.
.	2B-y	1g	.
1A	2.c	.	1cc
.	.	2f#i	.
.	4d	.	.
=50	=50	=50	=50
1G	2e-i	1g	2r
.	1d	.	2b-y
1r	.	2r	2a
.	2B-y	[2f	[2dd
=51	=51	=51	=51
0r	1c	2f]	4dd]
.	.	.	4cc
.	.	2e	1cc
.	1d	2.f	.
.	.	.	2bni
.	.	4g	.
=52	=52	=52	=52
1r	0c	2a	0cc
.	.	2g	.
2r	.	2e	.
[2F	.	2f	.
=53	=53	=53	=53
2F]	1c	1g	2r
2E	.	.	1cc
2.F	2A	2c	.
.	[2c	[2f	2a
4G	.	.	.
=54	=54	=54	=54
2A	2c]	4f]	2cc
.	.	4e	.
1G	2d	4g	1b-y
.	.	4f	.
.	2B-y	4e	.
.	.	4d	.
2C	[2c	2e	2g
=55	=55	=55	=55
1F	4c]	2c	1a
.	4A	.	.
.	1d	1f	.
1G	.	.	1b-y
.	4c	2e	.
.	4B-y	.	.
=56	=56	=56	=56
1F	1c	2.f	2a
.	.	.	2.cc
.	.	8eL	.
.	.	8dJ	.
[1F	2.A	1c	.
.	.	.	4b-y
.	.	.	[2a
.	4B-y	.	.
=57	=57	=57	=57
2F]	1c	1r	2a]
2E	.	.	2g
2D	1F	1f	2.a
[2A	.	.	.
.	.	.	4b-y
=58	=58	=58	=58
4A]	1r	2e	0cc
4G	.	.	.
4F	.	2.a	.
4E	.	.	.
4F	[1c	.	.
4G	.	4g	.
[2A	.	2e	.
=59	=59	=59	=59
2A]	2c]	2f	0r
1G	2B-y	2g	.
.	2A	1a	.
2F	[2d	.	.
=60	=60	=60	=60
2G	4d]	1d	0r
.	4c	.	.
2.d	4B-y	.	.
.	4A	.	.
.	4B-y	[1f	.
4c	4c	.	.
4B-y	[2d	.	.
4A	.	.	.
=61	=61	=61	=61
2B-y	2d]	2f]	0r
2c	1c	2e	.
1G	.	2d	.
.	2B-y	[2g	.
=62	=62	=62	=62
2r	1c	2g]	1r
2.A	.	4f	.
.	.	4e	.
.	2r	4f	[1cc
4G	.	4g	.
4F	2f	[2a	.
4E	.	.	.
=63	=63	=63	=63
2F	2f	2a]	2cc]
2G	2.d	1g	2b-y
1D	.	.	2a
.	4c	.	.
.	2A	2f	[2dd
=64	=64	=64	=64
0G	2.B-y	0g	4dd]
.	.	.	4cc
.	.	.	4b-y
.	4c	.	4a
.	2d	.	4b-y
.	.	.	4cc
.	2B-y	.	[2dd
=65	=65	=65	=65
1F	1f	1a	4dd]
.	.	.	4cc
.	.	.	1cc
1G	1d	1g	.
.	.	.	2bni
=66	=66	=66	=66
1C	2r	2r	[0cc
.	1e	1g	.
2r	.	.	.
[2A	2c	2f	.
=67	=67	=67	=67
2A]	2c	2e	1cc]
2F	2.f	2.a	.
2F	.	.	2r
.	4e	4g	.
[2B-y	4d	4f	[2dd
.	4c	4e	.
=68	=68	=68	=68
2B-]	2d	4f	2dd]
.	.	4g	.
2A	1f	2a	2cc
2B-y	.	2d	2dd
2c	2e	[2g	2g
=69	=69	=69	=69
1A	1c	2g]	2a
.	.	2f	1cc
1G	1d	1g	.
.	.	.	2bni
=	=	=	=
00C	00c	00g	00cc
=||	=||	=||	=||
*M2/1	*M2/1	*M2/1	*M2/1
*met(C|)	*met(C|)	*met(C|)	*met(C|)
!!section: Secunda pars: Ave Maria gratia plena
!!!OMD: Secunda pars: Ave Maria gratia plena
0F	0c	0f	0a
=70	=70	=70	=70
1A	1c	1e	1cc
1G	1d	1g	1b-y
=71	=71	=71	=71
2.F	1f	0a	[0cc
4G	.	.	.
2A	2e	.	.
2F	[2f	.	.
=72	=72	=72	=72
0c	2f]	0g	0cc]
.	4e	.	.
.	4d	.	.
.	1e	.	.
=73	=73	=73	=73
0F	1c	1.f	[0a
.	[1f	.	.
.	.	4e	.
.	.	4d	.
=74	=74	=74	=74
1.A	2f]	1c	1a]
.	2e	.	.
.	2c	2r	1r
2G	[2d	[2b-y	.
=75	=75	=75	=75
2.F	4d]	2b-]	1r
.	4c	.	.
.	1c	2a	.
4E	.	.	.
1D	.	2.f	[1ff
.	2Bni	.	.
.	.	4g	.
=76	=76	=76	=76
1C	1c	2a	2ff]
.	.	2g	2ee
1r	1r	2a	2cc
.	.	[2f	[2dd
=77	=77	=77	=77
1.F	2r	4f]	4dd]
.	.	4e	4cc
.	1a	2c	1cc
.	.	1d	.
2G	2g	.	2bni
=78	=78	=78	=78
2.A	2e	1c	1cc
.	1f	.	.
4B-y	.	.	.
1c	.	1g	2r
.	2e	.	[2cc
=79	=79	=79	=79
1G	1d	2r	2cc]
.	.	1g	2b-y
2E	2.c	.	2g
2F	.	2f	[2a
.	4A	.	.
=80	=80	=80	=80
2G	2B-y	2d	4a]
.	.	.	4g
2C	2c	2e	1g
1D	1A	1d	.
.	.	.	2f#i
=81	=81	=81	=81
0G	1G	1d	1g
.	1r	[1d	[1b-y
=82	=82	=82	=82
0r	0r	2d]	2b-]
.	.	2e	2cc
.	.	2f	2dd
.	.	[2g	[2ee-i
=83	=83	=83	=83
1.G	0r	4g]	4ee-]
.	.	4f	4dd
.	.	2d	1dd
.	.	1e	.
2A	.	.	2cc#i
=84	=84	=84	=84
1B-y	1.G	0d	0dd
2r	.	.	.
[2D	2A	.	.
=85	=85	=85	=85
2D]	2B-y	0r	0r
2E	2.c	.	.
2F	.	.	.
.	4d	.	.
[2G	[2e-X	.	.
=86	=86	=86	=86
4G]	4e-]	0r	0r
4F	4d	.	.
4E	1d	.	.
4D	.	.	.
1E	.	.	.
.	2c#i	.	.
=87	=87	=87	=87
2D	1d	2r	0r
1G	.	1b-y	.
.	1r	.	.
2A	.	2a	.
=88	=88	=88	=88
2B-y	0r	2f	0r
2.c	.	2.a	.
4B-y	.	4g	.
4A	.	[2g	.
4G	.	.	.
=89	=89	=89	=89
1A	1c	2g]	2r
.	.	2f#i	1cc
1D	[1d	2g	.
.	.	2g	2b-y
=90	=90	=90	=90
0r	2d]	2f	2a
.	2B-y	2d	2.dd
.	1e-X	[1g	.
.	.	.	4cc
.	.	.	[2cc
=91	=91	=91	=91
1G	1d	1g]	2cc]
.	.	.	2bni
[1A	2r	[1c	1cc
.	2f	.	.
=92	=92	=92	=92
2A]	2e	1c]	2r
2F	2.a	.	2a
1B-y	.	1r	2b-y
.	4g	.	.
.	[2g	.	2g
=93	=93	=93	=93
1A	2g]	1c	1cc
.	2f#i	.	.
1G	[1g	2d	1b-y
.	.	2B-y	.
=94	=94	=94	=94
1C	0g]	1e-i	1r
1G	.	1d	1b-y
=95	=95	=95	=95
1.A	1c	2r	1.cc
.	.	2f	.
.	2r	2e	.
2F	[2c	[2a	2a
=96	=96	=96	=96
1G	2c]	4a]	1dd
.	.	4g	.
.	2B-y	1g	.
1A	2.c	.	1cc
.	.	2f#i	.
.	4d	.	.
=97	=97	=97	=97
1G	2e-i	1g	2r
.	1d	.	2b-y
1r	.	2r	2a
.	2B-y	[2f	[2dd
=98	=98	=98	=98
0r	1c	2f]	4dd]
.	.	.	4cc
.	.	2e	1cc
.	1d	2.f	.
.	.	.	2bni
.	.	4g	.
=99	=99	=99	=99
1r	0c	2a	0cc
.	.	2g	.
2r	.	2e	.
[2F	.	2f	.
=100	=100	=100	=100
2F]	1c	1g	2r
2E	.	.	1cc
2.F	2A	2c	.
.	[2c	[2f	2a
4G	.	.	.
=101	=101	=101	=101
2A	2c]	4f]	2cc
.	.	4e	.
1G	2d	4g	1b-y
.	.	4f	.
.	2B-y	4e	.
.	.	4d	.
2C	[2c	2e	2g
=102	=102	=102	=102
1F	4c]	2c	1a
.	4A	.	.
.	1d	1f	.
1G	.	.	1b-y
.	4c	2e	.
.	4B-y	.	.
=103	=103	=103	=103
1F	1c	2.f	2a
.	.	.	2.cc
.	.	4e	.
[1F	2.A	[1c	.
.	.	.	4b-y
.	.	.	[2a
.	4B-y	.	.
=104	=104	=104	=104
2F]	1c	1c]	2a]
2E	.	.	2g
2D	1F	1f	2.a
[2A	.	.	.
.	.	.	4b-y
=105	=105	=105	=105
4A]	1r	2e	0cc
4G	.	.	.
4F	.	2.a	.
4E	.	.	.
4F	[1c	.	.
4G	.	4g	.
[2A	.	2e	.
=106	=106	=106	=106
2A]	2c]	2f	0r
1G	2B-y	2g	.
.	2A	1a	.
2F	[2d	.	.
=107	=107	=107	=107
2G	4d]	1d	0r
.	4c	.	.
2.d	4B-y	.	.
.	4A	.	.
.	4B-y	[1f	.
4c	4c	.	.
4B-y	[2d	.	.
4A	.	.	.
=108	=108	=108	=108
2B-y	2d]	2f]	0r
2c	1c	2e	.
[1G	.	2d	.
.	2Bni	[2g	.
=109	=109	=109	=109
2G]	1c	2g]	1r
2.A	.	4f	.
.	.	4e	.
.	2r	4f	[1cc
4G	.	4g	.
4F	2f	[2a	.
4E	.	.	.
=110	=110	=110	=110
2F	2f	2a]	2cc]
2G	2.d	1g	2b-y
1D	.	.	2a
.	4c	.	.
.	2A	2f#i	[2dd
=111	=111	=111	=111
0G	2.B-y	0g	4dd]
.	.	.	4cc
.	.	.	4b-y
.	4c	.	4a
.	2d	.	4b-y
.	.	.	4cc
.	2B-y	.	[2dd
=112	=112	=112	=112
1F	1f	1a	4dd]
.	.	.	4cc
.	.	.	1cc
1G	1d	1g	.
.	.	.	2bni
=113	=113	=113	=113
1C	2r	2r	[0cc
.	1e	1g	.
2r	.	.	.
[2A	2c	2f	.
=114	=114	=114	=114
2A]	2c	2e	1cc]
2F	2.f	2.a	.
2F	.	.	2r
.	4e	4g	.
[2B-y	4d	4f	[2dd
.	4c	4e	.
=115	=115	=115	=115
2B-]	2d	4f	2dd]
.	.	4g	.
2A	1f	2a	2cc
2B-y	.	2d	2dd
2c	2e	[2g	2g
=116	=116	=116	=116
1A	1c	2g]	2a
.	.	2f#i	1cc
1G	1d	1g	.
.	.	.	2bni
=117	=117	=117	=117
00Cl	00cl	00gl	00ccl
==	==	==	==
*-	*-	*-	*-
!!!system-decoration: [*]
!!!RDF**kern: i = editorial accidental
!!!RDF**kern: l = terminal long
!!!ENC: Benjamin Ory
!!!END: 2021/4/5
!!!EED: Benjamin Ory
!!!EEV: 2021/04/30
!!!YEC: Copyright 2021 Benjamin Ory, All Rights Reserved
!!!ONB: Translated from MusicXML on 2021/04/30
